**kern	**kern	**dynam
*part1	*part1	*part1
*staff2	*staff1	*
*I"Piano	*	*
*clefF4	*clefG2	*
*k[b-e-]	*k[b-e-]	*
=1	=1	=1
*	*^	*
*	*	*^	*
4AA]	(2.d	2F]	4c\_	.
4BB-X)	.	.	8c\L]	.
.	.	.	[8B-\J	.
(8EE-L 8E-	.	4G	(4B-/]	.
8EEnJ) 8En	.	.	.	.
*	*clefF4	*	*	*
=	=	=	=	=
[2FF 2F	4B-) 4d	4F	8F/L)	.
.	.	.	[8B-/J	.
.	4..c	2E-X	4B-/]	.
(4FFF 4FF]	.	.	4A/	.
.	16B-	.	.	.
*	*v	*v	*v	*
=	=	=
4FFF#X 4FF#X	2D 2B-	pp
4GGG) 4GG	.	.
(8EEE-L 8EE-	(8CL 8B-	.
8EEEnJ) 8EEn	8C#XJ) 8G	.
=	=	=
*	*^	*
*	*	*^	*
2FFFn [2FFn	4rFyy	4D	(8F/L	.
.	.	.	[8B-/J	.
.	4..c	2E-X	4B-/]	.
4FF] 4F	.	.	4A/)	.
.	16B-	.	.	.
*	*v	*v	*v	*
*	*clefG2	*
=	=	=
(4BB-' 4D	(4B-' 4f	.
4EE-' 4E-	4B-' 4g	.
8r	8r	.
8FF') 8E-	8A') 8f	.
=	=	=
(4BB-' 4D	(4B-' 4f	.
4EE-' 4E-	4B-' 4g	.
8r	8r	.
8FF') 8E-	8A') 8f	.
=	=	=
*^	*	*
4BB- 4D	4rBByy	4B- 4f	.
4r	4rBByy	4r	.
[4F [4B- [4d	[4BB-	4ryy	.
=	=	=	=
2F;] 2B-] 2d]	2BBB-; 2BB-]	4ryy	.
.	.	4ryy	.
4r	4rBByy	4r	.
*v	*v	*	*
==	==	==
*-	*-	*-
!!!system-decoration: {(s1,s2)}
